src/sources/forus-platform/resources/_platform-common/assets/img/features/icons/digid/icon-2.svg

<svg width="59" height="58" viewBox="0 0 59 58" fill="none" xmlns="http://www.w3.org/2000/svg">
    <rect x="0.5" width="58" height="58" rx="8" fill="#F7F9FC"/>
    <path d="M29.5 45C38.3366 45 45.5 37.8366 45.5 29C45.5 20.1634 38.3366 13 29.5 13C20.6634 13 13.5 20.1634 13.5 29C13.5 37.8366 20.6634 45 29.5 45Z" fill="#092DAA"/>
    <path d="M29.4999 42.0081C35.7227 42.0081 40.7673 39.0962 40.7673 35.5041C40.7673 31.912 35.7227 29 29.4999 29C23.277 29 18.2324 31.912 18.2324 35.5041C18.2324 39.0962 23.277 42.0081 29.4999 42.0081Z" fill="#769AF7"/>
    <path d="M29.5002 29C33.0923 29 36.0042 26.088 36.0042 22.4959C36.0042 18.9039 33.0923 15.9919 29.5002 15.9919C25.9081 15.9919 22.9961 18.9039 22.9961 22.4959C22.9961 26.088 25.9081 29 29.5002 29Z" fill="white"/>
    <path opacity="0.5" d="M29.5002 39.6667L36.6546 30.5076C34.4664 29.5385 32.0461 29 29.5002 29C26.9543 29 24.534 29.5385 22.3457 30.5076L29.5002 39.6667Z" fill="url(#paint0_linear_735_45293)"/>
    <defs>
        <linearGradient id="paint0_linear_735_45293" x1="29.5002" y1="29" x2="29.5002" y2="39.6667" gradientUnits="userSpaceOnUse">
            <stop stop-color="#0A33C1"/>
            <stop offset="1" stop-color="#0A33C1" stop-opacity="0"/>
        </linearGradient>
    </defs>
</svg>

<svg width="59" height="58" fill="none" xmlns="http://www.w3.org/2000/svg"><rect x=".5" width="58" height="58" rx="8" fill="#F7F9FC"/><path d="M29.5 45c8.837 0 16-7.163 16-16s-7.163-16-16-16-16 7.163-16 16 7.163 16 16 16Z" fill="#092DAA"/><path d="M29.5 42.008c6.223 0 11.267-2.912 11.267-6.504C40.767 31.912 35.723 29 29.5 29s-11.268 2.912-11.268 6.504c0 3.592 5.045 6.504 11.268 6.504Z" fill="#769AF7"/><path d="M29.5 29a6.504 6.504 0 1 0 0-13.008A6.504 6.504 0 0 0 29.5 29Z" fill="#fff"/><path opacity=".5" d="m29.5 39.667 7.155-9.16A17.623 17.623 0 0 0 29.5 29c-2.546 0-4.966.538-7.154 1.508l7.154 9.159Z" fill="url(#a)"/><defs><linearGradient id="a" x1="29.5" y1="29" x2="29.5" y2="39.667" gradientUnits="userSpaceOnUse"><stop stop-color="#0A33C1"/><stop offset="1" stop-color="#0A33C1" stop-opacity="0"/></linearGradient></defs></svg>
